_includes/icons/ios-brush.svg

<svg fill="#666" height="50" viewBox="0 0 50 50" width="50" xmlns="http://www.w3.org/2000/svg"><path d="m36.78125 4.03125c-.292969.03125-.554687.191406-.71875.4375l-12.15625 17.53125c-.082031.121094-.132812.261719-.15625.40625-.0625.335938-.085937.671875-.0625 1-3.699219.390625-6.242187 1.800781-7.96875 3.8125-1.875 2.1875-2.8125 4.957031-3.65625 7.71875s-1.597656 5.53125-2.9375 7.84375-3.1875 4.1875-6.4375 5.28125c-.449219.164063-.714844.625-.640625 1.097656.078125.472657.476563.824219.953125.839844 10.371094 0 17.929688-.648437 23.09375-3.5625 4.964844-2.800781 7.414063-7.800781 7.59375-15.5625.105469-.011719.210938-.011719.3125-.03125.292969-.054687.542969-.238281.6875-.5l13.15625-24.8125c.257813-.492187.070313-1.101562-.421875-1.359375-.492187-.257812-1.101562-.070312-1.359375.421875l-12.8125 24.21875c-1.160156.039063-3.191406-.585937-4.84375-1.8125-.898437-.667969-1.675781-1.460937-2.15625-2.21875-.457031-.722656-.578125-1.351562-.5-1.90625l11.9375-17.25c.238281-.320312.265625-.746094.070313-1.09375-.199219-.34375-.582032-.542969-.976563-.5zm-12.46875 21.3125c.085938.164063.152344.34375.25.5.65625 1.039063 1.601563 1.96875 2.65625 2.75 1.382813 1.027344 2.949219 1.828125 4.46875 2.15625-.144531 7.398438-2.222656 11.472656-6.59375 13.9375-3.785156 2.136719-9.972656 2.863281-17.75 3.09375 1.488281-1.144531 2.636719-2.507812 3.5-4 1.519531-2.621094 2.292969-5.53125 3.125-8.25s1.742188-5.207031 3.28125-7c1.472656-1.71875 3.527344-2.910156 7.0625-3.1875z"/></svg>

<svg xmlns="http://www.w3.org/2000/svg" viewBox="0 0 50 50" width="50" height="50" fill="#666"><path d="M 36.78125 4.03125 C 36.488281 4.0625 36.226563 4.222656 36.0625 4.46875 L 23.90625 22 C 23.824219 22.121094 23.773438 22.261719 23.75 22.40625 C 23.6875 22.742188 23.664063 23.078125 23.6875 23.40625 C 19.988281 23.796875 17.445313 25.207031 15.71875 27.21875 C 13.84375 29.40625 12.90625 32.175781 12.0625 34.9375 C 11.21875 37.699219 10.464844 40.46875 9.125 42.78125 C 7.785156 45.09375 5.9375 46.96875 2.6875 48.0625 C 2.238281 48.226563 1.972656 48.6875 2.046875 49.160156 C 2.125 49.632813 2.523438 49.984375 3 50 C 13.371094 50 20.929688 49.351563 26.09375 46.4375 C 31.058594 43.636719 33.507813 38.636719 33.6875 30.875 C 33.792969 30.863281 33.898438 30.863281 34 30.84375 C 34.292969 30.789063 34.542969 30.605469 34.6875 30.34375 L 47.84375 5.53125 C 48.101563 5.039063 47.914063 4.429688 47.421875 4.171875 C 46.929688 3.914063 46.320313 4.101563 46.0625 4.59375 L 33.25 28.8125 C 32.089844 28.851563 30.058594 28.226563 28.40625 27 C 27.507813 26.332031 26.730469 25.539063 26.25 24.78125 C 25.792969 24.058594 25.671875 23.429688 25.75 22.875 L 37.6875 5.625 C 37.925781 5.304688 37.953125 4.878906 37.757813 4.53125 C 37.558594 4.1875 37.175781 3.988281 36.78125 4.03125 Z M 24.3125 25.34375 C 24.398438 25.507813 24.464844 25.6875 24.5625 25.84375 C 25.21875 26.882813 26.164063 27.8125 27.21875 28.59375 C 28.601563 29.621094 30.167969 30.421875 31.6875 30.75 C 31.542969 38.148438 29.464844 42.222656 25.09375 44.6875 C 21.308594 46.824219 15.121094 47.550781 7.34375 47.78125 C 8.832031 46.636719 9.980469 45.273438 10.84375 43.78125 C 12.363281 41.160156 13.136719 38.25 13.96875 35.53125 C 14.800781 32.8125 15.710938 30.324219 17.25 28.53125 C 18.722656 26.8125 20.777344 25.621094 24.3125 25.34375 Z"/></svg>
